Adwaita++-Dark/actions/16/stock_xfburn-new-data-composition.svg

<svg height="16" viewBox="0 0 16 16" width="16" xmlns="http://www.w3.org/2000/svg">
  <path d="m8 0a8 8 0 0 0 -8 8 8 8 0 0 0 8 8 8 8 0 0 0 8-8 8 8 0 0 0 -8-8zm-4 5h8v1h-8zm0 3h8v1h-8zm0 3h8v1h-8z" fill="#e6ddff"/>
</svg>

<svg xmlns="http://www.w3.org/2000/svg" width="16" height="16" version="1.1" viewBox="0 0 16 16">
 <defs>
  <style id="current-color-scheme" type="text/css">
   .ColorScheme-Text { color:#E6DDFF; } .ColorScheme-Highlight { color:#4285f4; }
  </style>
 </defs>
 <path style="fill:currentColor" class="ColorScheme-Text" d="M 8 0 A 8 8 0 0 0 0 8 A 8 8 0 0 0 8 16 A 8 8 0 0 0 16 8 A 8 8 0 0 0 8 0 z M 4 5 L 12 5 L 12 6 L 4 6 L 4 5 z M 4 8 L 12 8 L 12 9 L 4 9 L 4 8 z M 4 11 L 12 11 L 12 12 L 4 12 L 4 11 z"/>
</svg>
